X:1
T:The Road To Ballymac x2
L:1/8
Q:1/4=180
M:4/4
K:Gmaj
|:"G"!mf! D2 z2 G2 z2 | .G3 (B"C" AG) E z |"G" G2 z2"C" z4 |"G" z8"D7" |
"G"!mf! D2 z2 G2 z2 |"G" .G3 (B"C" AG) E z |"C/D"cc z2 z2 cc |1"D" z4 D4 :|2
"D"z4"G" D4 |:
"G"d2 .d2"Em" z e3 |"C" .e2 z f-"D7" f4 |"G" d2 .d2"Am" z e3 |"C" .g2 z a-"D7" a4 |
"G"d2 .d2"Em" z e3 |"C" .e2 z f-"D7" f4 |"G" .g2 z g-"C" g4 |1"D7" .f2 z2"G" d4 :|2
"D7".f2 z2"G" d4 |:

